svg/solid/bxs-message-square-dots.svg

<svg xmlns="http://www.w3.org/2000/svg" width="24" height="24"><path d="M16 2H8C4.691 2 2 4.691 2 8v13a1 1 0 0 0 1 1h13c3.309 0 6-2.691 6-6V8c0-3.309-2.691-6-6-6zm-5 10.5A1.5 1.5 0 0 1 9.5 14c-.086 0-.168-.011-.25-.025-.083.01-.164.025-.25.025a2 2 0 1 1 2-2c0 .085-.015.167-.025.25.013.082.025.164.025.25zm4 1.5c-.086 0-.167-.015-.25-.025a1.471 1.471 0 0 1-.25.025 1.5 1.5 0 0 1-1.5-1.5c0-.085.012-.168.025-.25-.01-.083-.025-.164-.025-.25a2 2 0 1 1 2 2z"/></svg>

<svg xmlns="http://www.w3.org/2000/svg" width="24" height="24" viewBox="0 0 24 24"><path d="M16,2H8C4.691,2,2,4.691,2,8v13c0,0.552,0.447,1,1,1h13c3.309,0,6-2.691,6-6V8C22,4.691,19.309,2,16,2z M11,12.5c0,0.829-0.672,1.5-1.5,1.5c-0.086,0-0.168-0.011-0.25-0.025C9.167,13.985,9.086,14,9,14c-1.104,0-2-0.896-2-2s0.896-2,2-2	s2,0.896,2,2c0,0.085-0.015,0.167-0.025,0.25C10.988,12.332,11,12.414,11,12.5z M15,14c-0.086,0-0.167-0.015-0.25-0.025	C14.668,13.989,14.586,14,14.5,14c-0.828,0-1.5-0.671-1.5-1.5c0-0.085,0.012-0.168,0.025-0.25C13.015,12.167,13,12.086,13,12	c0-1.104,0.896-2,2-2s2,0.896,2,2S16.104,14,15,14z"/></svg>
